!!!!SEGMENT: pl-cz--iii-50--004_brykner-jerzy--vesperae-laudate-pueri.krn
!!!cenid: 17xx:846
!!!COM: Brykner, Jerzy
!!!COM-rismid: pe30025739
!!!CDT: 1705-1760
!!!CNT: Polish
!!!OPR: Vesperae
!!!OTL: Laudate pueri
!!!OMV: 004
!!!PDT:
!!!AGN: Sacred; Vespers
!!!SMS-siglum: PL-CZ
!!!SMS-shelfmark: III-50
!!!SMS-shelfwork: 001-004 M
!!!SMS-variant:
!!!SMS-altvar:
!!!NIFC-rismid: 300033583
!!!URL-scan: http://repozytorium.nifc.pl/skany/pl-cz-nut--iii-50
!!!ONB-nifc: UWAGA: części Vesperae: Dixit Dominus, Confitebor, Beatus vir, Laudate pueri, Laudate Dominum, In exitu, Laetatus sum, Nisi Dominus, Lauda Jerusalem, Credidi, In convertendo, Domine probasti me, Memento Domine David, Confitebor, De profundis, Beati omnes, Magnificat
!!!key:
**kern	**fb	**kern	**dynam	**kern	**dynam	**kern	**kern	**text
*part5	*part5	*part4	*part4	*part3	*part3	*part2	*part1	*part1
*group	*group	*group2	*group2	*group2	*group2	*group1	*group1	*group1
*staff5	*	*staff4	*	*staff3	*	*staff2	*staff1	*staff1
*Iorgan	*	*Ivioln	*	*Ivioln	*	*Iempty	*Ivox	*
*I"Organo.	*	*I"Violino Secundo.	*	*I"Violino Primo.	*	*I"Baſso.	*I"Canto.	*
*I'org	*	*I'vl 2	*	*I'vl 1	*	*I'B	*I'C	*
*clefF4	*	*clefG2	*	*clefG2	*	*clefF4	*clefC1	*
*k[]	*	*k[]	*	*k[]	*	*k[]	*k[]	*
*C:	*	*C:	*	*C:	*	*C:	*C:	*
*M4/4	*	*M4/4	*	*M4/4	*	*M4/4	*M4/4	*
*met(c)	*	*met(c)	*	*met(c)	*	*met(c)	*met(c)	*
!LO:TX:b:i:t=Laudate pueri.	!	!LO:TX:b:i:t=Laudate Pueri.	!	!LO:TX:b:t=Laudate.	!	!	!	!
!	!	!	!	!	!	!	!LO:TX:a:t=P:problem=w źródle ta adnotacja zapisana na pustej pięciolinii	!
!LO:TX:a:i:t=ſolo.	!	!	!	!	!	!LO:TX:b:i:t=Laudate pueri Tacet.	!LO:TX:a:i:t=Solo.	!
8r	.	8r	.	8r	.	8ryy	8g\	Lau-
=1	=1	=1	=1	=1	=1	=1	=1	=1
*	*above	*	*	*	*	*	*	*
!LO:TX:a:t=P:problem=mixed beam	!	!	!	!	!	!	!	!
8c\L	.	1r	.	1r	.	1ryy	8cc\	-da-
8C/	.	.	.	.	.	.	8cc\	-te
8c\	.	.	.	.	.	.	8cc\	pu-
8B\J	.	.	.	.	.	.	16cc\	-e-
.	.	.	.	.	.	.	16cc\	-ri
8A\L	.	.	.	.	.	.	16cc\	Do-
.	.	.	.	.	.	.	16b\	-mi-
8G\	.	.	.	.	.	.	8cc\	-nu(m)
8A\	.	.	.	.	.	.	8r	.
8E\J	.	.	.	.	.	.	8g\	Lau-
=2	=2	=2	=2	=2	=2	=2	=2	=2
!LO:TX:a:t=P:problem=mixed beam	!	!	!	!	!	!	!	!
8F\L	6 5	4r	.	4r	.	1ryy	8dd\	-da-
8D\	.	.	.	.	.	.	8dd\	-te
8G\	.	16r	.	16r	.	.	16dd\LL	No-
.	.	16g/LL	.	16g/LL	.	.	16cc\JJ	.
8GG/J	.	16a/	.	16a/	.	.	8dd\	-me(n)
*	*	*2\right	*	*	*	*	*	*
.	.	16b/JJ	.	16b/JJ	.	.	.	.
4C/	.	(>32cc\LLL	.	(>32cc\LLL	.	.	16ee\	Do-
.	.	32dd\JJ	.	32dd\JJ)	.	.	.	.
.	.	8.ee\J)	.	8.ee\J	.	.	16dd\	-mi-
.	.	.	.	.	.	.	8cc\	-ni.
!LO:TX:a:t=P:problem=mixed beam	!	!	!	!	!	!	!	!
8c\L	.	(>32ee\LLL	.	(>32ee\LLL	.	.	4r	.
.	.	32ff\JJ	.	32ff\JJ)	.	.	.	.
.	.	8.gg\J)	.	8.gg\J	.	.	.	.
8C/J	.	.	.	.	.	.	.	.
=3	=3	=3	=3	=3	=3	=3	=3	=3
8D\L	X 6	8b\L|	.	8b\L|	.	1ryy	1r	.
16E\L	X 6	8cc\J|	.	8cc\J|	.	.	.	.
16F\JJ	.	.	.	.	.	.	.	.
8G\L	.	16r	.	16r	.	.	.	.
.	.	16dd\LL	.	16dd\LL	.	.	.	.
8F\J	.	16ee\	.	16ee\	.	.	.	.
.	.	16ff\JJ	.	16ff\JJ	.	.	.	.
*	*	*Xtuplet	*	*Xtuplet	*	*	*	*
!	!	!	!	!	!	!	!LO:TX:a:t=1	!
!	!	!LO:TUP:a:problem=klamra łukowa	!	!LO:TUP:a:problem=klamra łukowa	!	!	!	!
8E\L	X 6	24gg\LL	.	24gg\LL	.	.	.	.
.	.	24ff\	.	24ff\	.	.	.	.
.	.	24gg\JJ	.	24gg\JJ	.	.	.	.
!	!	!LO:TUP:a:problem=klamra łukowa	!	!LO:TUP:a:problem=klamra łukowa	!	!	!	!
8F\J	.	24aa\LL	.	24aa\LL	.	.	.	.
.	.	24gg\	.	24gg\	.	.	.	.
.	.	24ff\JJ	.	24ff\JJ	.	.	.	.
8C/L	.	32ee\KLL	.	(>32ee\KLL	.	.	.	.
.	.	16.aa\	.	16.aa\	.	.	.	.
8AA/J	X 6/	32ff#X\K	.	32ff#X\K)	.	.	.	.
.	.	16.cc\JJ	.	16.cc\JJ	.	.	.	.
=4	=4	=4	=4	=4	=4	=4	=4	=4
!	!	!LO:TUP:b:problem=klamra łukowa	!	!LO:TUP:b:problem=klamra łukowa	!	!	!	!
8GG/L	.	24b/LL	.	24b/LL	.	1ryy	2r	.
.	.	24a/	.	24a/	.	.	.	.
.	.	24g/JJ	.	24g/JJ	.	.	.	.
!	!	!	!	!LO:TUP:a:problem=klamra łukowa	!	!	!	!
8FF/J	.	24cc\LL	.	24cc\LL	.	.	.	.
.	.	24b\	.	24b\	.	.	.	.
.	.	24a\JJ	.	24a\JJ	.	.	.	.
4GG/	.	4bt\	.	4bt\	.	.	.	.
!LO:TX:a:t=P:problem=mixed beam	!	!	!	!	!	!	!	!
8C/L	.	4cc\	.	4cc\	.	.	8r	.
8c\	.	.	.	.	.	.	8ee\	Sit
8B\	.	4r	.	4r	.	.	8dd\	No-
8A\J	.	.	.	.	.	.	8cc\	-men
!	!	!LO:LB:g=original	!	!LO:LB:g=original	!	!	!	!
=5	=5	=5	=5	=5	=5	=5	=5	=5
!LO:TX:a:t=P:problem=mixed beam	!	!	!	!	!	!	!	!
8B\L	X 6	16r	.	8r	.	1ryy	8dd\	D(o-
.	.	4r	.	.	.	.	.	.
8BB/	.	.	.	8gg\L	.	.	16g\	-mi)-
.	.	.	.	.	.	.	16g\	-ni
!	!	!	!	!	!	!	!LO:LB:g=original	!
8C/	.	.	.	8gg\	.	.	8ee\	be-
!	!	!	!LO:DY:b:t=p&colon;	!	!	!	!	!
.	.	16gg\LL	p	.	.	.	.	.
8BB/J	.	16gg\	.	8gg\J	.	.	8dd\	-ne-
.	.	16gg\JJ	.	.	.	.	.	.
*	*	*	*	*	*	*	*2\right	*
4AA/	X 7	(>32gg\LLL	.	(>32gg\LLL	.	.	2cc\	-di-
.	.	32ff#X\JJ	.	32ff#X\JJ)	.	.	.	.
.	.	8.ee\J)	.	8.ee\J	.	.	.	.
4D\	7 #	4ff#t\	.	4ff#t\	.	.	.	.
!LO:LB:g=original	!	!	!	!	!	!	!	!
=6	=6	=6	=6	=6	=6	=6	=6	=6
!	!	!LO:TX:a:t=P:problem=mixed beam	!	!LO:TX:a:t=P:problem=mixed beam	!	!	!	!
4GG/	.	8gg\L	.	8gg\L	.	1ryy	8b\	-ctu(s)
.	.	16g/L	.	16g/L	.	.	16b\	ex
.	.	16a/JJ	.	16a/JJ	.	.	16cc\	hoc
4r	.	8b/L	.	8b/L	.	.	8dd,\	nunc
.	.	16a/L	.	16a/L	.	.	16cc\LL	et
.	.	16b/JJ	.	16b/JJ	.	.	16dd\JJ	.
4r	.	16cc/LL	.	16cc/LL	.	.	16ee\LL	us-
.	.	16a/	.	16a/	.	.	16cc\JJ	.
.	.	16b/	.	16b/	.	.	16dd\	-(que)
.	.	16g/JJ	.	16g/JJ	.	.	16b\	in
8r	.	16a/LL	.	16a/LL	.	.	16cc\LL	ſa(e)-
.	.	16f#X/	.	16f#X/	.	.	16a\	.
8GG/	.	16g/	.	16g/	.	.	16b\	.
.	.	16e/JJ	.	16e/JJ	.	.	16g\JJ	.
=7	=7	=7	=7	=7	=7	=7	=7	=7
4D\	X 4	4g/	.	4g/	.	1ryy	4d/	.
4DD/	X #	4f#X/	.	4f#X/	.	.	8.a\	.
.	.	.	.	.	.	.	16g\	-cu-
!	!	!	!LO:DY:b:t=f&colon;	!	!LO:DY:b:t=for	!	!	!
4GG/	.	(<32g/LLL	f	(<32g/LLL	f	.	4g\	-lum.
.	.	32a/JJ	.	32a/JJ	.	.	.	.
.	.	8.b/J)	.	8.b/J)	.	.	.	.
!LO:TX:a:t=P:problem=mixed beam	!	!	!	!	!	!	!	!
8G\L	.	(>32b\LLL	.	(>32b\LLL	.	.	4r	.
.	.	32cc\JJ	.	32cc\JJ	.	.	.	.
.	.	8.dd\J)	.	8.dd\J)	.	.	.	.
8GG/J	.	.	.	.	.	.	.	.
=8	=8	=8	=8	=8	=8	=8	=8	=8
8AA/L	X 6	8f#X/L	.	8f#X/L|	.	1ryy	1r	.
16BB/L	X 6	8g/J	.	8g/J|	.	.	.	.
16C/JJ	.	.	.	.	.	.	.	.
8D/L	X #	16r	.	16r	.	.	.	.
.	.	16a/LL	.	16a/LL	.	.	.	.
8C/J	.	16b/	.	16b/	.	.	.	.
.	.	16cc/JJ	.	16cc/JJ	.	.	.	.
!	!	!	!	!	!	!	!LO:TX:a:t=1.	!
!	!	!LO:TUP:a:problem=klamra łukowa	!	!LO:TUP:a:problem=klamra łukowa	!	!	!	!
8BB/L	X 6	24dd\LL	.	24dd\LL	.	.	.	.
.	.	24cc\	.	24cc\	.	.	.	.
.	.	24dd\JJ	.	24dd\JJ	.	.	.	.
!	!	!LO:TUP:a:problem=klamra łukowa	!	!LO:TUP:a:problem=klamra łukowa	!	!	!	!
8C/J	.	24ee\LL	.	24ee\LL	.	.	.	.
.	.	24dd\	.	24dd\	.	.	.	.
.	.	24cc\JJ	.	24cc\JJ	.	.	.	.
8G\L	.	(>32b\KLL	.	(>32b\KLL	.	.	.	.
.	.	16.ee\)	.	16.ee\	.	.	.	.
!	!	!	!	!LO:TX:a:t=P:problem=niewyraźne źródło	!	!	!	!
8E\J	X 6/	(>32cc#X\K	.	32cc#X\K	.	.	.	.
.	.	16.g\JJ)	.	16.g\JJ)	.	.	.	.
!	!	!LO:LB:g=original	!	!LO:LB:g=original	!	!	!	!
=9	=9	=9	=9	=9	=9	=9	=9	=9
!LO:TX:a:t=P:problem=mixed beam	!	!	!	!	!	!	!	!
8D\L	X 4	(<24f#X/LL	.	24f#X/LL	.	1ryy	2r	.
.	.	24e/	.	24e/	.	.	.	.
.	.	24d/JJ)	.	24d/JJ	.	.	.	.
8C\	.	(<24g/LL	.	24g/LL	.	.	.	.
.	.	24f#/	.	24f#/	.	.	.	.
.	.	24e/JJ)	.	24e/JJ	.	.	.	.
8D\	X #	4f#Xt/	.	4f#Xt/	.	.	.	.
8DD/J	.	.	.	.	.	.	.	.
!LO:TX:a:t=P:problem=mixed beam	!	!	!	!	!	!	!	!
8GG/L	.	8g/L	.	8g/L	.	.	8r	.
8G\	.	8G/J	.	8G/J	.	.	8g\	A
8G\	.	4r	.	4r	.	.	8b\	so-
8G\J	.	.	.	.	.	.	8dd\	-lis
=10	=10	=10	=10	=10	=10	=10	=10	=10
8G\L	.	1r	.	1r	.	1ryy	8gg\	or-
8G\	.	.	.	.	.	.	8g/	-tu
8Fn\	4 2	.	.	.	.	.	16b\	us-
.	.	.	.	.	.	.	16cc\	-(que)
!	!	!	!	!	!	!	!LO:LB:g=original	!
8F\J	.	.	.	.	.	.	16a\	ad
.	.	.	.	.	.	.	16b\	oc-
8E\L	X 6	.	.	.	.	.	8cc\	-ca-
8E\	.	.	.	.	.	.	8c/	-sum
8C\	.	.	.	.	.	.	8r	.
8D\J	.	.	.	.	.	.	8cc\	lau-
=11	=11	=11	=11	=11	=11	=11	=11	=11
!	!	!	!LO:DY:b:t=p.	!	!	!	!	!
8E\L	X -	(>32cc\LLL	p	(>32cc\LLL	.	1ryy	4.b-X\	-da-
!	!	!	!	!	!LO:DY:b:t=pia.	!	!	!
.	.	32dd\JJ	.	32dd\JJ)	p	.	.	.
.	.	8.ee\J)	.	8.ee\J	.	.	.	.
8E\	6 5	.	.	.	.	.	.	.
8E\	.	(>32ee\LLL	.	(>32ee\LLL	.	.	.	.
.	.	32ff\JJ	.	32ff\JJ)	.	.	.	.
.	.	8.gg\J)	.	8.gg\J	.	.	.	.
8E\J	.	.	.	.	.	.	8b-\	-bi-
8F\L	X 9	8gg\L	.	8gg\L	.	.	4a\	-le
8F\	X 8	8ff\J	.	8ff\J	.	.	.	.
8F\	.	4f/	.	4f/	.	.	8r	.
*	*	*	*	*	*	*	*	*ij
8F\J	.	.	.	.	.	.	8dd\	lau-
=12	=12	=12	=12	=12	=12	=12	=12	=12
8F#X\L	6 5	(>32dd\LLL	.	(>32dd\LLL	.	1ryy	4.cc\	-da-
.	.	32ee\JJ	.	32ee\JJ)	.	.	.	.
.	.	8.ff#X\J)	.	8.ff#X\J	.	.	.	.
8F#\	.	.	.	.	.	.	.	.
8F#\	.	(>32ff#\LLL	.	(>32ff#\LLL	.	.	.	.
.	.	32gg\JJ	.	32gg\JJ)	.	.	.	.
.	.	8.aa\J)	.	8.aa\J	.	.	.	.
8F#\J	.	.	.	.	.	.	8cc\	-bi-
!LO:LB:g=original	!	!	!	!	!	!	!	!
8G\L	X 9	8aa\L	.	8aa\L	.	.	4bn\	-le
8G\	X 8	8gg\J	.	8gg\J	.	.	.	.
8E\	X 6	4g/	.	4g/	.	.	8r	.
8C\J	.	.	.	.	.	.	8ee\	lau-
=13	=13	=13	=13	=13	=13	=13	=13	=13
4D\	X 9	2r	.	2r	.	1ryy	8ee\	-da-
.	.	.	.	.	.	.	16dd\	-bi-
.	.	.	.	.	.	.	16ee\	-le
*	*	*	*	*	*	*	*	*Xij
4D\	X 8	.	.	.	.	.	8ff\	No-
.	.	.	.	.	.	.	8dd\	-men
4E\	X 4	4r	.	4r	.	.	(>32cc\LLL	Do-
.	.	.	.	.	.	.	32b\JJ	.
.	.	.	.	.	.	.	8.a\J)	.
4EE/	X #	16r	.	16r	.	.	8.b\	.
!	!	!	!	!	!LO:DY:b:t=for	!	!	!
.	.	(>16b\LL	.	16b\LL	f	.	.	.
.	.	16cc\	.	16cc\	.	.	.	.
.	.	16dd\JJ)	.	16dd\JJ	.	.	16a\	-mi-
!	!	!	!	!LO:LB:g=original	!	!	!	!
=14	=14	=14	=14	=14	=14	=14	=14	=14
!	!	!LO:TUP:a:problem=klamra łukowa	!	!LO:TUP:a:problem=klamra łukowa	!	!	!	!
8AA/L	.	24ee\LL	.	24ee\LL	.	1ryy	4a\	-ni
.	.	24dd\	.	24dd\	.	.	.	.
.	.	24ee\JJ	.	24ee\JJ	.	.	.	.
!	!	!	!	!LO:TUP:a:problem=klamra łukowa	!	!	!	!
8D/J	.	24ff\LL	.	24ff\LL	.	.	.	.
.	.	24ee\	.	24ee\	.	.	.	.
.	.	24dd\JJ	.	24dd\JJ	.	.	.	.
!	!	!LO:SIC:custos cc:v	!	!	!	!	!	!
!	!	!LO:LB:g=original	!	!	!	!	!	!
8A\L	.	32cc\KLL	.	(>32cc\KLL	.	.	4r	.
.	.	16.ff\	.	16.ff\	.	.	.	.
8F\J	X 6	(>32dd\K	.	32dd\K)	.	.	.	.
.	.	16.a\JJ)	.	16.a\JJ	.	.	.	.
!LO:TX:a:t=P:problem=mixed beam	!	!	!	!	!	!	!	!
!	!	!LO:TUP:b:problem=klamra łukowa	!	!LO:TUP:b:problem=klamra łukowa	!	!	!	!
8E\L	X #	24g#X/LL	.	24g#X/LL	.	.	2r	.
.	.	24f/	.	24f/	.	.	.	.
.	.	24e/JJ	.	24e/JJ	.	.	.	.
!	!	!LO:TUP:b:problem=klamra łukowa	!	!LO:TUP:b:problem=klamra łukowa	!	!	!	!
8D\	.	24a/LL	.	24a/LL	.	.	.	.
.	.	24g#/	.	24g#X/	.	.	.	.
.	.	24f/JJ	.	24f#X/JJ	.	.	.	.
8E\	.	4g#X/	.	4g#Xt/	.	.	.	.
8EE/J	.	.	.	.	.	.	.	.
=15	=15	=15	=15	=15	=15	=15	=15	=15
!LO:TX:a:t=P:problem=mixed beam	!	!	!	!	!	!	!	!
8AA/L	.	8a/L	.	8a/L	.	1ryy	4r	.
8A\	.	8e/J	.	8e/J	.	.	.	.
!	!	!	!	!	!	!	!LO:SIC:custos a:v	!
!	!	!	!	!	!	!	!LO:LB:g=original	!
8A\	.	4A/	.	4A/	.	.	8r	.
8G\J	.	.	.	.	.	.	16a\LL	Ex-
.	.	.	.	.	.	.	16b\JJ	.
8F#X\L	6 5	8r	.	8r	.	.	8cc\	-cel-
8E\	.	8a/L	.	8a/L	.	.	8cc\	-sus
8F#\	.	8d/	.	8d/	.	.	16cc\LL	su-
.	.	.	.	.	.	.	16ee\JJ	.
8D\J	.	8d/J	.	8d/J	.	.	16dd\LL	-per
.	.	.	.	.	.	.	16cc\JJ	.
=16	=16	=16	=16	=16	=16	=16	=16	=16
4G\	.	4d/	.	4d/	.	1ryy	8b\	om-
.	.	.	.	.	.	.	16cc\LL	-nes
.	.	.	.	.	.	.	16dd\JJ	.
8c\L	.	8r	.	8r	.	.	8ee\	gen-
8G\J	.	8g/L	.	8g/L	.	.	8dd\	-tes
.	X 7	.	.	.	.	.	.	.
4A\	X 6/	8g/	.	8g/	.	.	8.cc\	Do-
.	.	8f#X/J	.	8f#X/J	.	.	.	.
.	.	.	.	.	.	.	16b\	-mi-
8G\L	.	8b/L	.	8g/L	.	.	4b\	-nus,
8F#X\J	.	8b/J	.	8b/J	.	.	.	.
=17	=17	=17	=17	=17	=17	=17	=17	=17
8E\L	.	8b/L	.	8b/L	.	1ryy	8r	.
8E\	.	8b/J	.	8b/J	.	.	8b\	et
8E\	X 6/	8b/L	.	8b/L	.	.	8gg\	ſu-
8A\J	X 5	16a/L	.	16a/L	.	.	16ff#X\LL	-per
.	.	16g/JJ	.	16g/JJ	.	.	16ee\JJ	.
8B\L	X #	4f#X/	.	4f#X/	.	.	8dd#X\	coe-
8A\	.	.	.	.	.	.	16cc\LL	-los
.	.	.	.	.	.	.	16b\JJ	.
8G\	X 6	4r	.	4r	.	.	8ee\	glo-
8A\J	.	.	.	.	.	.	16e/	-ri-
.	.	.	.	.	.	.	16f#X/	-a
!	!	!	!	!LO:LB:g=original	!	!	!	!
=18	=18	=18	=18	=18	=18	=18	=18	=18
4B\	X 4	4r	.	4r	.	1ryy	4g/	e-
4BB/	X #	16r	.	16r	.	.	8.f#X/L	.
.	.	16ff#X\LL	.	16ff#X\LL	.	.	.	.
.	.	16gg\	.	16gg\	.	.	.	.
.	.	16aa\JJ	.	16aa\JJ	.	.	16e/Jk	.
!	!	!LO:TUP:a:problem=klamra łukowa	!	!	!	!	!	!
8E\L	.	24bb\LL	.	24bb\LL	.	.	4e/	-jus.
.	.	24aa\	.	24aa\	.	.	.	.
.	.	24bb\JJ	.	24bb\JJ	.	.	.	.
!	!	!LO:TUP:a:problem=klamra łukowa	!	!	!	!	!	!
8A\J	.	24ccc\LL	.	24ccc\LL	.	.	.	.
.	.	24bb\	.	24bb\	.	.	.	.
.	.	24aa\JJ	.	24aa\JJ	.	.	.	.
8E\L	.	32gg\KLL	.	(>32gg\KLL	.	.	4r	.
.	.	16.ccc\	.	16.ccc\	.	.	.	.
8C\J	X 6	32aa\K	.	32aa\K)	.	.	.	.
.	.	16.ee\JJ	.	16.ee\JJ	.	.	.	.
!LO:LB:g=original	!	!LO:LB:g=original	!	!	!	!	!LO:LB:g=original	!
=19	=19	=19	=19	=19	=19	=19	=19	=19
!	!	!LO:TUP:a:problem=klamra łukowa	!	!	!	!	!	!
8BB/L	X #	24dd#X\LL	.	24dd#X\LL	.	1ryy	2r	.
.	.	24cc\	.	24cc\	.	.	.	.
.	.	24b\JJ	.	24b\JJ	.	.	.	.
!	!	!LO:TUP:a:problem=klamra łukowa	!	!	!	!	!	!
8AA/J	.	24ee\LL	.	24ee\LL	.	.	.	.
.	.	24dd#X\	.	24dd#X\	.	.	.	.
.	.	24cc#X\JJ	.	24cc#X\JJ	.	.	.	.
4BB/	.	4dd#\	.	4dd#\	.	.	.	.
!	!	!	!	!LO:TX:a:t=P:problem=mixed beam	!	!	!	!
4E\	.	4ee\	.	8ee\L	.	.	4r	.
.	.	.	.	8e/J	.	.	.	.
8G\L	X 6	4r	.	4r	.	.	8b\	Quis
8E\J	.	.	.	.	.	.	16ee\	si-
.	.	.	.	.	.	.	16cc\	-cut
=20	=20	=20	=20	=20	=20	=20	=20	=20
!	!	!	!	!LO:TX:a:t=3.	!	!	!	!
8C/L	X 6	0r	.	0r	.	1ryy	8a\	Do-
.	X 4	.	.	.	.	.	.	.
8D/	X #	.	.	.	.	.	16g/	-mi-
.	.	.	.	.	.	.	16f#X/	-nus
8E/	.	.	.	.	.	.	8g\	De-
8C/J	X 6	.	.	.	.	.	8a\	-us
8D/L	X #	.	.	.	.	.	8f#X/	noſ-
8D/	.	.	.	.	.	.	8d/	-ter
8D/	.	.	.	.	.	.	8r	.
8D/J	.	.	.	.	.	.	16dd\	qui
.	.	.	.	.	.	.	16ee\	in
=21	=21	=21	=21	=21	=21	=21	=21	=21
8C/L	4# 2	.	.	.	.	1ryy	16ff#X\LL	al-
.	.	.	.	.	.	.	16dd\JJ	.
8C/	.	.	.	.	.	.	16ee\LL	-tis
.	.	.	.	.	.	.	16ff#\JJ	.
8BB/	X 6	.	.	.	.	.	8.gg\	ha-
8AA/J	.	.	.	.	.	.	.	.
.	.	.	.	.	.	.	16g/	-bi-
8GG/L	.	.	.	.	.	.	4g/	-tat
8GG/	.	.	.	.	.	.	.	.
8D/	X #	.	.	.	.	.	8r	.
8D/J	.	.	.	.	.	.	16a\	et
.	.	.	.	.	.	.	16a\	hu-
=22	=22	=22	=22	=22	=22	=22	=22	=22
8C#X/L	X 7-	1r	.	1r	.	1ryy	8.b-X\	-mi-
8C#/	.	.	.	.	.	.	.	.
.	.	.	.	.	.	.	16a\	-li-
8D/	X #	.	.	.	.	.	4a\	-a
8Cn/J	.	.	.	.	.	.	.	.
!	!	!	!	!	!	!	!LO:SIC:custos dd:v	!
!	!	!	!	!	!	!	!LO:LB:g=original	!
8BB/L	X 6	.	.	.	.	.	16dd\	res-
.	.	.	.	.	.	.	16dd\	-pi-
8GG/	.	.	.	.	.	.	16b-\	-cit
.	.	.	.	.	.	.	16dd\	in
8C/	.	.	.	.	.	.	8ee\	coe-
8AA/J	.	.	.	.	.	.	16ff#X\LL	-lo
.	.	.	.	.	.	.	16gg\JJ	-,
=23	=23	=23	=23	=23	=23	=23	=23	=23
8E\L	.	4r	.	4r	.	1ryy	8g\	et
8C\J	X 6	.	.	.	.	.	8a\	in
4D\	X #	16r	.	16r	.	.	4f#X/	ter-
.	.	16a/LL	.	16a/LL	.	.	.	.
.	.	16b/	.	16b/	.	.	.	.
.	.	16cc/JJ	.	16cc/JJ	.	.	.	.
!	!	!LO:TUP:a:problem=klamra łukowa	!	!LO:TUP:a:problem=klamra łukowa	!	!	!	!
8GG/L	.	24dd\LL	.	24dd\LL	.	.	4g/	-ra.
.	.	24cc\	.	24cc\	.	.	.	.
.	.	24dd\JJ	.	24dd\JJ	.	.	.	.
!	!	!LO:TUP:a:problem=klamra łukowa	!	!LO:TUP:a:problem=klamra łukowa	!	!	!	!
8C/J	.	24ee\LL	.	24ee\LL	.	.	.	.
.	.	24dd\	.	24dd\	.	.	.	.
.	.	24cc\JJ	.	24cc\JJ	.	.	.	.
8G\L	.	(>32b\KLL	.	(>32b\KLL	.	.	4r	.
.	.	16.ee\	.	16.ee\	.	.	.	.
8E\J	X 6/	32cc#X\K)	.	32cc#X\K)	.	.	.	.
.	.	16.g\JJ	.	16.g\JJ	.	.	.	.
=24	=24	=24	=24	=24	=24	=24	=24	=24
!	!	!LO:TUP:b:problem=klamra łukowa	!	!	!	!	!	!
8D/L	X #	24f#X/LL	.	24f#X/LL	.	1ryy	2r	.
.	.	24e/	.	24e/	.	.	.	.
.	.	24d/JJ	.	24d/JJ	.	.	.	.
!	!	!LO:TUP:b:problem=klamra łukowa	!	!	!	!	!	!
8C/J	.	24g/LL	.	24g/LL	.	.	.	.
.	.	24f#/	.	24f#/	.	.	.	.
.	.	24e/JJ	.	24e/JJ	.	.	.	.
4D/	.	4f#/	.	4f#X/	.	.	.	.
!	!	!	!	!LO:PB:g=original	!	!	!	!
4GG/	.	8g/L	.	8g/L	.	.	8.g/	Sus-
.	.	8G/J	.	8G/J	.	.	.	.
.	.	.	.	.	.	.	16g/	-ci-
8BB/L	.	4r	.	4r	.	.	8d/	-tans
8GG/J	.	.	.	.	.	.	8dd\	a
=25	=25	=25	=25	=25	=25	=25	=25	=25
!	!	!	!	!	!LO:DY:b:t=pia.	!	!	!
8C/L	X 9	8e/L	.	8e/L	p	1ryy	8dd\	ter-
8AA/J	X 3	8a/	.	8a/	.	.	8cc\	-ra
!LO:LB:g=original	!	!	!	!	!	!	!	!
8E\L	6 4	8a/	.	8a/	.	.	16cc\	i-
.	.	.	.	.	.	.	16b\	-no-
8E\J	5 3	8g/J	.	8g/J	.	.	8b\	-pe(m),
8E\L	7 5	8g/L	.	8g/L	.	.	8b\	et
8D\J	8 6	16a/L	.	16a/L	.	.	16cc\LL	de
.	.	16b/JJ	.	16b/JJ	.	.	16dd\JJ	.
!	!	!LO:TX:a:t=P:problem=mixed beam	!	!LO:TX:a:t=P:problem=mixed beam	!	!	!	!
8C/L	.	8cc\L	.	8cc\L	.	.	8ee\	ster-
!	!	!LO:TX:a:t=P:problem=w źródle dodatkowa pauza ćwierćnutowa na końcu taktu	!	!	!	!	!	!
8AA/J	.	8c/J	.	8c/J	.	.	16dd\	-co-
.	.	.	.	.	.	.	16ee\	-re
!	!	!LO:LB:g=original	!	!	!	!	!LO:LB:g=original	!
=26	=26	=26	=26	=26	=26	=26	=26	=26
8D/L	.	0r	.	0r	.	1ryy	4.ffn\	e-
8C/	.	.	.	.	.	.	.	.
8BB/	.	.	.	.	.	.	.	.
8GG/J	.	.	.	.	.	.	16ee\	-ri-
.	.	.	.	.	.	.	16dd\	-gens
!LO:TX:a:t=P:problem=mixed beam	!	!	!	!	!	!	!	!
8C/L	.	.	.	.	.	.	8.ee\	pau-
8C/	.	.	.	.	.	.	.	.
.	.	.	.	.	.	.	16ee\	-pe-
8G\	.	.	.	.	.	.	8dd\	-re(m),
8E\J	.	.	.	.	.	.	8g\	ut
=27	=27	=27	=27	=27	=27	=27	=27	=27
8Fn\L	.	.	.	.	.	1ryy	8a\	col-
8E\	.	.	.	.	.	.	16g\	-lo-
.	.	.	.	.	.	.	16g\	-cet
8F\	.	.	.	.	.	.	8a\	e-
8G\J	.	.	.	.	.	.	8b\	-um
8A\L	.	.	.	.	.	.	4.cc\	cu(m)
16G\L	.	.	.	.	.	.	.	.
16F\JJ	.	.	.	.	.	.	.	.
8E\L	X 6	.	.	.	.	.	.	.
8F\J	.	.	.	.	.	.	8dd\	prin-
=28	=28	=28	=28	=28	=28	=28	=28	=28
8G\L	.	1r	.	1r	.	1ryy	8b\	-ci-
16F\L	.	.	.	.	.	.	16b\	-pi-
16E\JJ	.	.	.	.	.	.	16b\	-b(us),
8D\L	X 6-	.	.	.	.	.	8b-X\	cu(m)
8E\J	.	.	.	.	.	.	8b-\	prin-
4F\	.	.	.	.	.	.	8a\	-ci-
.	.	.	.	.	.	.	16b-X\	-pi-
.	.	.	.	.	.	.	16cc\	-b(us)
4BB-X/	.	.	.	.	.	.	8dd\	po-
.	.	.	.	.	.	.	16cc\	-pu-
.	.	.	.	.	.	.	16b-X\	-li
=29	=29	=29	=29	=29	=29	=29	=29	=29
2C/	6 4	4r	.	4r	.	1ryy	(>4a\	ſu-
!	!	!	!LO:DY:b:t=f&colon;	!	!	!	!	!
.	5 3	16r	f	16r	.	.	4g\)	.
.	.	16cc\LL	.	16cc\LL	.	.	.	.
.	.	16dd\	.	16dd\	.	.	.	.
.	.	16ee\JJ	.	16ee\JJ	.	.	.	.
4FF/	.	(>32ff\LLL	.	(>32ff\LLL	.	.	4f/	-i
.	.	32gg\JJ	.	32gg\JJ)	.	.	.	.
.	.	8.aa\J)	.	8.aa\J	.	.	.	.
!LO:TX:a:t=P:problem=mixed beam	!	!	!	!	!	!	!	!
8F\L	.	(>32aa\LLL	.	(>32aa\LLL	.	.	4r	.
.	.	32bb-X\JJ	.	32bb-X\JJ)	.	.	.	.
.	.	8.ccc\J)	.	8.ccc\J	.	.	.	.
8FF/J	.	.	.	.	.	.	.	.
!	!	!	!	!	!	!	!LO:PB:g=original	!
=30	=30	=30	=30	=30	=30	=30	=30	=30
8GG/L	X 6	8ee\L|	.	8ee\L|	.	1ryy	8r	.
8AA/J	X 6	8ff\J|	.	8ff\J|	.	.	16f/LL	Qui
.	.	.	.	.	.	.	16g/JJ	.
8r	.	8r	.	8r	.	.	8a\	ha-
8FF/	.	4ff\	.	4ff\	.	.	16g/LL	-bi-
.	.	.	.	.	.	.	16f/JJ	.
8C/L	X 4	.	.	.	.	.	8g\	-ta-
8CC/J	X 3	8ee\	.	8ee\	.	.	8cc\	-re
8r	.	8dd\L	.	8dd\L	.	.	8b-X\	fa-
8GG/	X -	[>8gg\J	.	8gg\J	.	.	16a\LL	-cit
.	.	.	.	.	.	.	16g\JJ	.
=31	=31	=31	=31	=31	=31	=31	=31	=31
!LO:TX:a:t=P:problem=mixed beam	!	!	!	!	!	!	!	!
8D\L	X 4	8gg\L]	.	8gg\L	.	1ryy	8a\	ste-
8DD/J	X 3	8ff\J	.	8ff\J	.	.	8dd\	-ri-
!LO:SIC:custos F:v	!	!	!	!	!	!	!	!
!LO:LB:g=original	!	!	!	!	!	!	!	!
8r	.	16ee\LL	.	16ee\LL	.	.	8cc\	-lem
.	.	16cc\JJ	.	16cc\JJ	.	.	.	.
8F\L	.	4ff\	.	4ff\	.	.	16b-X\LL	in
.	.	.	.	.	.	.	16a\JJ	.
8G\	X -	.	.	.	.	.	4b-\	do-
8C\J	X 7	8ee\	.	8ee\	.	.	.	.
!	!	!LO:TX:a:t=P:problem=mixed beam	!	!LO:TX:a:t=P:problem=mixed beam	!	!	!	!
8F\L	.	8ff\L	.	8ff\L	.	.	8a\	-mo
8F\J	.	(<8f/J	.	8a/J	.	.	[>8ff\	Ma-
!	!	!	!	!LO:LB:g=original	!	!	!	!
=32	=32	=32	=32	=32	=32	=32	=32	=32
8G\L	9 7	8a/L)	.	8a/L	.	1ryy	8ff\]	.
.	8 6	.	.	.	.	.	.	.
8G\	7 5	16g/L	.	16g/L	.	.	16ee\LL	-trem
.	.	16f/JJ	.	16f/JJ	.	.	16dd\JJ	.
8A\	X #	8e/L	.	8e/L	.	.	8cc#X\	fi-
8F\J	X 6	8a/J	.	8a/J	.	.	8dd\	-li-
8G\L	X -	8d/L	.	8d/L	.	.	8b-X\	-o-
8A\	X #	8c#X/	.	8c#X/	.	.	4a\	-ru(m)
8B-X\	X 7	8d/	.	8d/	.	.	.	.
8G\J	X 6	8e/J	.	8e/J	.	.	8g\	lae-
=33	=33	=33	=33	=33	=33	=33	=33	=33
4A\	6 4	4d/	.	4d/	.	1ryy	4f/	-tan-
!	!	!LO:TX:a:t=P:problem=mixed beam	!	!LO:TX:a:t=P:problem=mixed beam	!	!	!	!
!	!	!LO:LB:g=original	!	!	!	!	!	!
4AA/	5 #	16c#X/LL	.	16c#X/LL	.	.	4e/	.
!	!	!	!LO:DY:b:t=f&colon;	!	!	!	!	!
.	.	16ee\	f	16ee\	.	.	.	.
!	!	!	!	!	!LO:DY:b:t=for	!	!	!
.	.	16ff\	.	16ff\	f	.	.	.
.	.	16gg\JJ	.	16gg\JJ	.	.	.	.
!	!	!LO:TUP:a:problem=klamra łukowa	!	!LO:TUP:a:problem=klamra łukowa	!	!	!	!
8D\L	.	24aa\LL	.	24aa\LL	.	.	4d/	-tem
.	.	24gg\	.	24gg\	.	.	.	.
.	.	24aa\JJ	.	24aa\JJ	.	.	.	.
!	!	!LO:TUP:a:problem=klamra łukowa	!	!LO:TUP:a:problem=klamra łukowa	!	!	!	!
8G\J	X -	24bb-X\LL	.	24bb-X\LL	.	.	.	.
.	.	24aa\	.	24aa\	.	.	.	.
.	.	24gg\JJ	.	24gg\JJ	.	.	.	.
8D/L	.	(>32ff\KLL	.	(>32ff\KLL	.	.	4r	.
.	.	16.bb-X\	.	16.bb-X\	.	.	.	.
8BB-X/J	X 6	32gg\K	.	32gg\K)	.	.	.	.
.	.	16.dd\JJ)	.	16.dd\JJ	.	.	.	.
!	!	!	!	!	!	!	!LO:LB:g=original	!
=34	=34	=34	=34	=34	=34	=34	=34	=34
!	!	!LO:TUP:a:problem=klamra łukowa	!	!LO:TUP:a:problem=klamra łukowa	!	!	!	!
8AA/L	X #	24cc#X\LL	.	24cc#X\LL	.	1ryy	2r	.
.	.	24b\	.	24b\	.	.	.	.
.	.	24a\JJ	.	24a\JJ	.	.	.	.
!	!	!LO:TUP:a:problem=klamra łukowa	!	!LO:TUP:a:problem=klamra łukowa	!	!	!	!
8GG/J	.	24dd\LL	.	24dd\LL	.	.	.	.
.	.	24cc#\	.	24cc#\	.	.	.	.
.	.	24b\JJ	.	24b\JJ	.	.	.	.
4AA/	.	4cc#Xt\	.	4cc#Xt\	.	.	.	.
8D/L	.	8dd\	.	8dd\	.	.	4.ff\	Glo-
!	!	!	!	!	!LO:DY:b:t=po.	!	!	!
8C/	.	4a/	.	4a/	p	.	.	.
8D/	.	.	.	.	.	.	.	.
8BB-X/J	X 6	16b-X/LL	.	16b-X/LL	.	.	16gg\	-ri-
.	.	16a/JJ	.	16a/JJ	.	.	16ff\	-a
=35	=35	=35	=35	=35	=35	=35	=35	=35
8C\L	.	8g/L	.	8g/L	.	1ryy	8ee\	Pa-
16F\L	.	16a/L	.	16a/L	.	.	8ff\	-tri,
!	!	!	!	!LO:TX:a:t=P:problem=♭ above	!	!	!	!
16G\JJ	.	16b-X/JJ	.	16b-X/JJ	.	.	.	.
8A\L	X 6	4cc\	.	8cc\L	.	.	8r	.
8B-X\J	.	.	.	8ff\J	.	.	8dd\	et
!	!	!LO:N:vis=4	!	!	!	!	!	!
!	!	!	!	!LO:LB:g=original	!	!	!	!
4G\	X -	8ff\	.	8ff\L	.	.	4.b-X\	Fi-
.	.	16gg\LL	.	16gg\L	.	.	.	.
.	.	16ff\JJ	.	16ff\JJ	.	.	.	.
4C/	X 7	4eet\	.	4eet\	.	.	.	.
.	.	.	.	.	.	.	8b-\	-li-
=36	=36	=36	=36	=36	=36	=36	=36	=36
8F\L	.	8ff\L	.	8ff\L	.	1ryy	8a\	-o,
8F\	.	8cc\	.	8cc\	.	.	16a\	et
.	.	.	.	.	.	.	16a\	Spi-
8F\	.	8dd\	.	8dd\	.	.	8bn\	-ri-
!	!	!LO:TX:a:t=c	!	!	!	!	!	!
8E\J	.	8cc\J	.	8cc\J	.	.	16cc\	-tu-
.	.	.	.	.	.	.	16cc\	-i
4D\	X 7	4cc\	.	4cc\	.	.	16f/LL	San-
.	.	.	.	.	.	.	16e/	.
.	.	.	.	.	.	.	16f/	.
.	.	.	.	.	.	.	16g/JJ	.
4GG/	X n	4bt\	.	4bn\	.	.	4f/	.
=37	=37	=37	=37	=37	=37	=37	=37	=37
4C/	.	4cc\	.	4cc\	.	1ryy	8e/	-cto,
.	.	.	.	.	.	.	16g/	si-
.	.	.	.	.	.	.	16g/	-cut
8E/L	.	4r	.	4r	.	.	16cc\	e-
.	.	.	.	.	.	.	16cc\	-rat
8C/J	.	.	.	.	.	.	16ee\	in
.	.	.	.	.	.	.	16ee\	prin-
!	!	!LO:LB:g=original	!	!	!	!	!	!
8BB/L	X 6	2r	.	2r	.	.	16dd\	-ci-
.	.	.	.	.	.	.	16dd\	-pi-
8AA/	.	.	.	.	.	.	16g\	-o,
.	.	.	.	.	.	.	16g\	et
!	!	!	!	!	!	!	!LO:LB:g=original	!
8BB/	.	.	.	.	.	.	8dd\	nunc
8GG/J	.	.	.	.	.	.	8ff\	et
!LO:SIC:custos C:v	!	!	!	!	!	!	!	!
!LO:PB:g=original	!	!	!	!	!	!	!	!
=38	=38	=38	=38	=38	=38	=38	=38	=38
8C\L	.	0r	.	0r	.	1ryy	8ee\	ſe(m)-
8C\	.	.	.	.	.	.	8cc\	-per,
8E\	X 6	.	.	.	.	.	8gg\	et
8E\J	X 5-	.	.	.	.	.	8b-X\	in
8F\L	.	.	.	.	.	.	8a\	ſae-
8F\	.	.	.	.	.	.	16a\	-cu-
.	.	.	.	.	.	.	16a\	-la
8F#X\	X 6	.	.	.	.	.	8aa\	ſae-
8F#\J	X 5	.	.	.	.	.	8cc\	-cu-
=39	=39	=39	=39	=39	=39	=39	=39	=39
8G\L	.	.	.	.	.	1ryy	8bn\	-lo-
8Fn\	.	.	.	.	.	.	8g\	-ru(m)
8E\	.	.	.	.	.	.	[>4cc\	A-
8C\J	.	.	.	.	.	.	.	.
4AA/	X 6	.	.	.	.	.	16cc\LL]	.
.	.	.	.	.	.	.	16b\	.
.	.	.	.	.	.	.	16cc\	.
.	.	.	.	.	.	.	16ee\JJ	.
4BB/	X 6	.	.	.	.	.	16dd\LL	.
.	.	.	.	.	.	.	16cc\	.
.	.	.	.	.	.	.	16dd\	.
.	.	.	.	.	.	.	16ff\JJ	.
=40	=40	=40	=40	=40	=40	=40	=40	=40
8C/L	.	2r	.	2r	.	1ryy	16ee\LL	.
.	.	.	.	.	.	.	16ff\	.
8D/	.	.	.	.	.	.	16ee\	.
.	.	.	.	.	.	.	16ff\JJ	.
8E/	.	.	.	.	.	.	8gg\	.
8C/J	.	.	.	.	.	.	8cc\	-men
!LO:TX:a:t=P:problem=mixed beam	!	!	!	!	!	!	!	!
!	!	!	!LO:DY:b:t=for&colon;	!	!	!	!	!
8F\L	6 5	4r	f	4r	.	.	(>4dd\	a-
8D\	.	.	.	.	.	.	.	.
8G\	.	16r	.	16r	.	.	4b\)	.
.	.	16g/LL	.	16g/LL	.	.	.	.
8GG/J	.	16a/	.	16a/	.	.	.	.
.	.	16b/JJ	.	16b/JJ	.	.	.	.
=41	=41	=41	=41	=41	=41	=41	=41	=41
4C/	.	(>32cc\LLL	.	(32cc\LLL	.	1ryy	4cc\	-men
.	.	32dd\JJ	.	32dd\JJ	.	.	.	.
.	.	8.ee\J)	.	8.ee\J)	.	.	.	.
!LO:TX:a:t=P:problem=mixed beam	!	!	!	!	!	!	!	!
8c\L	.	(>32ee\LLL	.	(>32ee\LLL	.	.	4r	.
.	.	32ff\JJ	.	32ff\JJ	.	.	.	.
.	.	8.gg\J)	.	8.gg\J)	.	.	.	.
8C/J	.	.	.	.	.	.	.	.
8D\L	X 6	8b\L|	.	8b\L|	.	.	2r	.
16E\L	X 6	8cc\J|	.	8cc\J|	.	.	.	.
16F\JJ	.	.	.	.	.	.	.	.
8G\L	.	16r	.	16r	.	.	.	.
.	.	16dd\LL	.	16dd\LL	.	.	.	.
8F\J	.	16ee\	.	16ee\	.	.	.	.
.	.	16ff\JJ	.	16ff\JJ	.	.	.	.
!	!	!	!	!LO:LB:g=original	!	!	!	!
=42	=42	=42	=42	=42	=42	=42	=42	=42
!	!	!	!	!	!	!	!LO:TX:a:t=2.	!
!	!	!LO:TUP:a:problem=klamra łukowa	!	!	!	!	!	!
8E\L	X 6	24gg\LL	.	24gg\LL	.	1ryy	0r	.
.	.	24ff\	.	24ff\	.	.	.	.
.	.	24gg\JJ	.	24gg\JJ	.	.	.	.
!	!	!LO:TUP:a:problem=klamra łukowa	!	!	!	!	!	!
8F\J	.	24aa\LL	.	24aa\LL	.	.	.	.
.	.	24gg\	.	24gg\	.	.	.	.
.	.	24ff\JJ	.	24ff\JJ	.	.	.	.
8C/L	.	32ee\KLL	.	(>32ee\KLL	.	.	.	.
.	.	(>16.aa\	.	16.aa\	.	.	.	.
8AA/J	X 6/	32ff#X\K	.	32ff#X\K)	.	.	.	.
.	.	16.cc\JJ)	.	16.cc\JJ	.	.	.	.
!	!	!LO:TUP:b:problem=klamra łukowa	!	!LO:TUP:b:problem=klamra łukowa	!	!	!	!
8GG/L	.	24b/LL	.	24b/LL	.	.	.	.
.	.	24a/	.	24a/	.	.	.	.
.	.	24g/JJ	.	24g/JJ	.	.	.	.
!	!	!LO:TUP:a:problem=klamra łukowa	!	!LO:TUP:a:problem=klamra łukowa	!	!	!	!
8FF/J	.	24cc\LL	.	24cc\LL	.	.	.	.
.	.	24b\	.	24b\	.	.	.	.
.	.	24a\JJ	.	24a\JJ	.	.	.	.
4GG/	.	4bt\	.	4bt\	.	.	.	.
=43	=43	=43	=43	=43	=43	=43	=43	=43
!	!	!LO:TX:a:t=P:problem=mixed beam	!	!LO:TX:a:t=P:problem=mixed beam	!	!	!	!
4C/	.	8cc\L	.	8cc\L	.	1ryy	.	.
.	.	8c/J	.	8c/J	.	.	.	.
4r	.	4r	.	4r	.	.	.	.
2r	.	2r	.	2r	.	.	.	.
==;;	==;;	==;;	==	==	==	==	==;;	==
*-	*-	*-	*-	*-	*-	*-	*-	*-
!!!system-decoration: [g1][g2]s5
!!!RDF**kern: > = above
!!!RDF**kern: < = below
!!!EED: Antoni Szymański
!!!EST: 2020-12-31
!!!AIN: 1 empty 1 organ 2 violn 1 vox
!!!ENC: Anastazja Marusiak
!!!END: 2020-06-25
!!!RDF**kern: | = vertical stroke
